libs/ui/packages/crypto-icons/src/svg/MAID.svg

<svg width="24" height="24" viewBox="0 0 24 24" fill="none">
<path d="M15.9745 9.52736V19.2571L7.75751 14.5269C5.32751 13.1041 5.48201 12.2191 5.48201 10.2969L13.9293 15.1809V10.7191L15.9738 9.52661L15.9745 9.52736Z" fill="#5592D7"/>
<path opacity="0.6" d="M13.9299 15.1809L5.4826 10.2961L13.6981 5.56589C16.1281 4.18064 16.8226 4.75814 18.5199 5.71964L10.0726 10.6044L13.9299 12.8349V15.1809Z" fill="#5592D7"/>
<path opacity="0.2" d="M10.0728 10.6044L18.52 5.7196V15.1809C18.52 17.9889 17.6718 18.2964 15.9745 19.2579V9.52735L12.0775 11.7571L10.072 10.6036L10.0728 10.6044Z" fill="#5592D7"/>
</svg>

<svg width="24" height="24" viewBox="0 0 24 24" fill="none"><path fill="#5592d7" d="M15.975 9.527v9.73l-8.217-4.73c-2.43-1.423-2.276-2.308-2.276-4.23l8.447 4.884v-4.462l2.045-1.192"/><path fill="#5592d7" d="m13.93 15.18-8.447-4.884 8.215-4.73c2.43-1.385 3.125-.808 4.822.154l-8.447 4.884 3.857 2.23z" opacity=".6"/><path fill="#5592d7" d="M10.073 10.604 18.52 5.72v9.46c0 2.809-.848 3.116-2.545 4.078v-9.73l-3.897 2.23-2.006-1.154" opacity=".2"/></svg>
